dist/assets/img/filterDownToUp.svg

<svg width="13" height="9" viewBox="0 0 13 9" fill="none" xmlns="http://www.w3.org/2000/svg">
<path fill-rule="evenodd" clip-rule="evenodd" d="M12.2149 9.00006C12.57 9.00006 12.8578 8.71224 12.8578 8.3572C12.8578 8.00216 12.57 7.71434 12.2149 7.71434L0.643476 7.71434C0.288435 7.71434 0.000617115 8.00216 0.000617083 8.3572C0.000617052 8.71224 0.288434 9.00006 0.643475 9.00006L12.2149 9.00006ZM10.2858 4.50002C10.2858 4.85507 9.99795 5.14288 9.64291 5.14288L0.642888 5.14288C0.287848 5.14288 2.99263e-05 4.85506 2.99573e-05 4.50002C2.99883e-05 4.14498 0.287848 3.85717 0.642889 3.85717L9.64291 3.85717C9.99795 3.85717 10.2858 4.14498 10.2858 4.50002ZM7.71497 0.642847C7.71497 0.997887 7.42715 1.28571 7.07211 1.28571L0.643521 1.2857C0.28848 1.2857 0.000663503 0.997886 0.000663534 0.642846C0.000663565 0.287804 0.288482 -1.25429e-05 0.643522 -1.25119e-05L7.07211 -1.19499e-05C7.42715 -1.19189e-05 7.71497 0.287805 7.71497 0.642847Z" fill="#383838"/>
</svg>

<svg width="13" height="9" fill="none" xmlns="http://www.w3.org/2000/svg"><path fill-rule="evenodd" clip-rule="evenodd" d="M12.215 9a.643.643 0 1 0 0-1.286H.643A.643.643 0 0 0 .643 9h11.572Zm-1.93-4.5a.643.643 0 0 1-.642.643h-9a.643.643 0 0 1 0-1.286h9c.355 0 .643.288.643.643ZM7.716.643a.643.643 0 0 1-.643.643H.644A.643.643 0 1 1 .644 0h6.428c.355 0 .643.288.643.643Z" fill="#383838"/></svg>
